X:1
T:Title
%%score { ( 1 3 5 ) | ( 2 4 ) }
L:1/8
Q:1/4=100
M:4/4
K:Bb
V:1 treble nm="Grand Piano"
V:3 treble 
V:5 treble 
V:2 bass 
V:4 bass 
V:1
 F2 D>F B2 AG | F2 [B,FB]>[Fc] [Fd]2 z2 | [Ge]>[Ge] [Ge]2 [Fd]>[Fd] [Fd]2 | d2 c>B c2 z2 | %4
w: J.~H.~Ruebush * * * * *||||
 F2 D>F B2 AG | F2 [B,FB]>[Bd] [Bf]2 z2 | [Bf]2 [Fd]>[FB] [EG]2 [Ge]2 | d2 c>c B2 z2 | [DF]6 z2 | %9
w: |||||
 [DB]6[K:bass] z2 | c6 z2 | [Fd]6[K:bass] z2 | [Ff]6 z2 | B,2 B,2 [Ge]2 z2 | [Fd]6 z2 | %15
w: ||||||
 [B,DB]6 z2 |] %16
w: |
V:2
 F,2 D,>F, B,2 A,G, | F,2 D,>[C,A,] [B,,B,]2 z2 | [E,B,]>[E,B,] [E,B,]2 [B,,B,]>[B,,B,] [B,,B,]2 | %3
 [B,F]2 [A,CF]>[G,CF] [F,A,F]2 z2 | F,2 D,>F, B,2 A,G, | F,2 D,>[F,B,] [B,D]2 z2 | %6
 [B,,D]2 [D,B,]>[D,B,] [E,B,]2 [E,B,]2 | [F,B,F]2 [F,A,E]>[F,A,E] [B,D]2 z2 | %8
 [B,,B,]2 B,,B,, B,,2 EE | [B,,F,]2 B,,B,, B,,2 z2 | F6 z2 | [B,,B,]2 B,,B,, B,,2 z2 | %12
 B,,2 B,,2 B,,2[K:treble] FD | E,2 E,2 [E,B,]2 z2 | [F,B,]2 F,2 z FEE | B,,6 z2 |] %16
V:3
 x8 | x8 | x8 | x8 | x8 | x8 | x8 | x8 | z2 B,B, B,2 GA | z2[K:bass] F,F, F,2 z2 | z2 A,A, A,2 Bc | %11
 z2[K:bass] B,B, B,2 z2 | D2 D2 D2 dB | [EG]4 z4 | z2 B,2 z dcc | x8 |] %16
V:4
 x8 | x8 | x8 | x8 | x8 | x8 | x8 | x8 | x8 | x8 | [F,A,]2 F,F, F,2 DE | x8 | x6[K:treble] x2 | %13
 x8 | z4 F,2 [F,A,]2 | x8 |] %16
V:5
 x8 | x8 | x8 | x8 | x8 | x8 | x8 | x8 | x8 | x2[K:bass] x6 | x8 | x2[K:bass] x6 | x8 | x8 | %14
 z4 B,2 z2 | x8 |] %16

